Sources/FrostedUI/Resources/Icons.xcassets/chevronLeftToLineInBoxSize16.imageset/chevron-left-to-line-in-box-size-16.svg

<svg
  width="16"
  height="16"
  viewBox="0 0 16 16"
  fill="none"
  xmlns="http://www.w3.org/2000/svg"
  data-fui-icon="true"
>
  <g
    clip-path="url(#clip0_622_251)"
    stroke="currentColor"
    stroke-width="1.5"
    stroke-linecap="round"
    stroke-linejoin="round"
  >
    <path
      d="M0.75 10.25V5.75C0.75 2.98858 2.98858 0.75 5.75 0.75H10.25C13.0114 0.75 15.25 2.98858 15.25 5.75V10.25C15.25 13.0114 13.0114 15.25 10.25 15.25H5.75C2.98858 15.25 0.75 13.0114 0.75 10.25Z"
    />
    <path d="M5.75 4.75V11.2499M11.25 4.75L8.25 7.99995L11.25 11.2499" />
  </g>
  <defs>
    <clipPath id="clip0_622_251">
      <path fill="currentColor" d="M0 0H16V16H0z" />
    </clipPath>
  </defs>
</svg>

<svg xmlns="http://www.w3.org/2000/svg" width="16" height="16" fill="none" data-fui-icon="true" viewBox="0 0 16 16"><g stroke="currentColor" stroke-linecap="round" stroke-linejoin="round" stroke-width="1.5" clip-path="url(#a)"><path d="M.75 10.25v-4.5a5 5 0 0 1 5-5h4.5a5 5 0 0 1 5 5v4.5a5 5 0 0 1-5 5h-4.5a5 5 0 0 1-5-5"/><path d="M5.75 4.75v6.5m5.5-6.5L8.25 8l3 3.25"/></g><defs><clipPath id="a"><path fill="currentColor" d="M0 0h16v16H0z"/></clipPath></defs></svg>
